X:1
T:Jingle Bells
T:Rayan T. Germiniani Violão Solo 
%%score 1 2
L:1/8
Q:1/4=130
M:4/4
K:C
V:1 treble-8 nm="Violão" snm="Viol."
V:2 tab stafflines=6 strings=E2,A2,D3,G3,B3,E4 nostems nm="Violão" snm="Viol."
V:1
"^\n" z8 | G2 e2 d2 c2 | G6 G2 | G2 e2 d2 c2 | A6 A2 | A2 f2 e2 d2 | B4 B4 | g2 g2 f2 d2 | e6 G2 | %9
 G2 e2 d2 c2 | G6 G2 | G2 e2 d2 c2 | A6 A2 | A2 f2 e2 d2 | g2 g2 g2 g2 | a2 g2 f2 d2 | c8 | %17
 e2 e2 e4 | e2 e2 e4 | e2 g2 c2 d2 | e8 | f2 f2 f4 | f2 e2 e4 | e2 d2 d2 e2 | d4 g4 | e2 e2 e4 | %26
 e2 e2 e4 | e2 g2 c2 d2 | e8 | f2 f2 f4 | f2 e2 e4 | g2 g2 f2 d2 | c8 |] %33
V:2
 x8 | !3!G,2 !1!E2 !2!D2 !2!C2 | !3!G,2 x4 !3!G,2 | !3!G,2 !1!E2 !2!D2 !2!C2 | !3!A,6 !3!A,2 | %5
 !3!A,2 !1!F2 !1!E2 !2!D2 | !2!B,2 x2 !2!B,2 x2 | !1!G2 !1!G2 !1!F2 !2!D2 | !1!E6 !3!G,2 | %9
 !3!G,2 !1!E2 !2!D2 !2!C2 | !3!G,2 x4 !3!G,2 | !3!G,2 !1!E2 !2!D2 !2!C2 | !3!A,6 !3!A,2 | %13
 !3!A,2 !1!F2 !1!E2 !2!D2 | !1!G2 !1!G2 !1!G2 !1!G2 | !1!A2 !1!G2 !1!F2 !2!D2 | !2!C2 x2 x4 | %17
 !1!E2 !1!E2 !1!E4 | !1!E2 !1!E2 !1!E4 | !1!E2 !1!G2 !2!C2 !2!D2 | !1!E8 | !1!F2 !1!F2 !1!F4 | %22
 !1!F2 !1!E2 !1!E4 | !1!E2 !2!D2 !2!D2 !1!E2 | !2!D4 !1!G4 | !1!E2 !1!E2 !1!E4 | %26
 !1!E2 !1!E2 !1!E4 | !1!E2 !1!G2 !2!C2 !2!D2 | !1!E8 | !1!F2 !1!F2 !1!F4 | !1!F2 !1!E2 !1!E4 | %31
 !1!G2 !1!G2 !1!F2 !2!D2 | !2!C8 |] %33

